svgs/sharp-regular/box-taped.svg

<svg xmlns="http://www.w3.org/2000/svg" viewBox="0 0 448 512"><!--! Font Awesome Pro 6.4.2 by @fontawesome - https://fontawesome.com License - https://fontawesome.com/license (Commercial License) Copyright 2023 Fonticons, Inc. --><path d="M160 160l26.7-80H95.2L59.6 160 160 160zm0 48H48V432H400V208H288v80H160V208zm128-48H388.4L352.8 80H261.3L288 160zM64 32H384l64 144V432v48H400 48 0V432 176L64 32z"/></svg>

<svg xmlns="http://www.w3.org/2000/svg" viewBox="0 0 448 512"><!--! Font Awesome Pro 6.6.0 by @fontawesome - https://fontawesome.com License - https://fontawesome.com/license (Commercial License) Copyright 2024 Fonticons, Inc. --><path d="M160 160l26.7-80L95.2 80 59.6 160 160 160zm0 48L48 208l0 224 352 0 0-224-112 0 0 80-128 0 0-80zm128-48l100.4 0L352.8 80l-91.5 0L288 160zM64 32l320 0 64 144 0 256 0 48-48 0L48 480 0 480l0-48L0 176 64 32z"/></svg>
